assets/images/expensify-card-icon.svg

<svg xmlns="http://www.w3.org/2000/svg" version="1.1" viewBox="0 0 20 20"><defs><style>.cls-1{fill-rule:evenodd}</style></defs><g><g id="Layer_1"><path d="M1.75,3c-.966,0-1.75.783-1.75,1.75v10.5c0,.966.784,1.75,1.75,1.75h16.5c.966,0,1.75-.784,1.75-1.75V4.75c0-.967-.784-1.75-1.75-1.75H1.75ZM12.999,14.5h-5.999V5.5h5.999v2h-3.999v1.5h3v1.909h-3s0,1.592,0,1.592h4v1.999h0Z" class="cls-1"/></g></g></svg>

<svg xmlns="http://www.w3.org/2000/svg" viewBox="0 0 20 20"><defs><style>.cls-1{fill-rule:evenodd}</style></defs><path id="Layer_1" d="M1.75 3A1.75 1.75 0 0 0 0 4.75v10.5C0 16.216.784 17 1.75 17h16.5A1.75 1.75 0 0 0 20 15.25V4.75A1.75 1.75 0 0 0 18.25 3zm11.249 11.5H7v-9h5.999v2H9V9h3v1.909H9v1.592h4z" class="cls-1"/></svg>
